X: 1
T: Lente!
C: Wouter Kuyper
R: bour\'ee 2T
S: NEFFA 2019 French Jam handout p.4 #1
Z: 2019 John Chambers <jc:trillian.mit.edu>
M: 2/4
L: 1/8
K: G
"^A"|:\
"G"G2GA "Bm"Bd- | dB d"C"e- | ec ef | "D"g>f ef |\
"G"G2GA "Bm"Bd- | dB d"C"e- | ec ef | "D"B2 A2 :|
"B"[|\
"C"e>c BA- | AG A"D"B- | BA Bc | "D"A2 A2 |\
"C"e>c BA- | AG A"D"B- | Bc BG | "D"A4 ||
||\
"C"e>c B"D"A- | AG A"Em"B- | BA Bc | "D"A2 A2 |\
"C"e>c B"D"A- | AG A"B"B- | B4- | B4 |]
